X: 29
T:Step Back - Field Town
S:OY(AB)4
N:Tune as played for Grand Union Morris
N:www.grandunionmorris.co.uk
M:4/4
L:1/8
Q:100
K:D
d2 cd e2 f2  | e2 dc Bc d2 | c2 A2 B2 G2 | A2 AG FG A2 | d2 cd B2 AG |
F2 A2 d4 | F2  FD E2 C2 | D4 D4||
AGFE D2 EF | G2 A2 B2 c2 | dcBA G2 A2 | Bcdf e2 ce |d2 Bd c2 A2 | BGEF G
2 B2 | AGFE D2 EF | G4 G4 ||

